src/pages/headings/DasTeam.svg

<svg viewBox="0 0 434 85" fill="none" xmlns="http://www.w3.org/2000/svg">
    <path d="M22.6799 73.08C13.0499 73.08 5.93989 72.72 0.989893 72.09C0.0898929 72 -0.000107296 71.82 -0.000107296 71.46C-0.000107296 70.83 1.61989 70.02 2.96989 69.12L4.22989 68.22C4.31989 68.13 4.40989 68.13 4.40989 68.04C6.29989 66.6 7.64989 64.8 9.89989 60.84C17.8199 46.98 24.3899 31.23 32.3999 17.37C34.7399 13.23 37.4399 10.44 41.3099 7.92L45.1799 5.4L45.8099 6.3C42.3899 8.64001 41.1299 11.16 39.0599 14.67C31.1399 28.26 24.6599 43.83 16.9199 57.42C14.6699 61.38 13.0499 63.36 10.2599 65.34L7.01989 67.59H7.10989C9.89989 68.04 20.2499 68.94 28.4399 68.94C53.1899 68.94 69.1199 54.45 69.0299 34.38C68.9399 16.47 56.6099 3.24 35.9099 3.24C26.0999 3.24 18.7199 7.92 15.6599 10.08L15.1199 9.18C22.1399 4.14 30.8699 3.69549e-06 41.3999 3.69549e-06C62.2799 3.69549e-06 73.9799 14.94 73.9799 29.43C73.9799 55.98 47.5199 73.17 22.6799 73.08ZM104.432 73.17C101.102 73.17 100.202 70.56 100.202 68.58C100.202 61.83 105.962 50.94 111.722 41.85C95.8815 60.57 83.8215 73.17 78.1515 73.17C73.3815 73.17 72.3015 68.76 72.3015 66.15C72.3015 51.12 91.3815 26.91 108.212 26.91C111.902 26.91 118.112 27.54 123.062 29.16L123.782 29.43C124.592 29.7 124.772 30.24 124.232 30.96C121.712 34.56 116.582 42.12 112.712 49.23C106.952 59.85 106.322 64.71 106.322 66.24C106.322 67.95 107.222 68.76 108.752 68.76C110.732 68.76 113.252 67.68 117.662 63.81L118.292 64.71C112.712 69.48 107.132 73.17 104.432 73.17ZM78.0615 63.9C78.0615 66.87 79.2315 69.21 81.6615 69.21C85.6215 69.21 97.9515 57.06 116.852 34.11L117.752 32.76C114.152 31.41 108.482 29.79 103.622 29.79C90.3915 29.79 78.0615 49.77 78.0615 63.9ZM127.609 73.17C122.929 73.17 118.429 71.46 118.699 66.78C118.789 64.89 119.959 62.46 124.369 59.13L124.909 59.58C124.279 60.75 123.919 62.1 123.919 63.36C123.919 67.14 126.709 70.83 132.829 70.83C138.409 70.83 143.449 67.23 143.449 61.47C143.449 54.27 134.719 46.08 135.259 39.06C135.889 31.41 145.789 26.91 154.069 26.91C157.849 26.91 162.349 27.99 162.349 29.52C162.349 31.41 159.649 33.3 157.669 33.3C154.969 33.3 152.269 32.13 145.879 29.34C141.469 30.87 139.579 32.94 139.309 35.37C138.589 42.93 147.949 50.22 147.589 58.59C147.139 67.05 137.959 73.17 127.609 73.17ZM177.929 71.1V22.14H159.209C158.309 22.14 157.769 21.51 157.769 20.7V12.87C157.769 11.88 158.309 11.34 159.209 11.34H209.609C210.509 11.34 211.139 11.88 211.139 12.87V20.7C211.139 21.51 210.509 22.14 209.609 22.14H190.889V71.1C190.889 71.91 190.259 72.54 189.359 72.54H179.459C178.559 72.54 177.929 71.91 177.929 71.1ZM218.976 71.1V12.78C218.976 11.97 219.696 11.34 220.506 11.34H262.446C263.346 11.34 263.886 11.88 263.886 12.87V20.7C263.886 21.51 263.346 22.14 262.446 22.14H231.936V35.01H253.446C254.346 35.01 254.886 35.55 254.886 36.54V44.28C254.886 45.18 254.346 45.81 253.446 45.81H231.936V61.74H262.446C263.346 61.74 263.886 62.28 263.886 63.18V71.01C263.886 71.91 263.346 72.54 262.446 72.54H220.506C219.696 72.54 218.976 71.91 218.976 71.1ZM281.394 70.47C280.944 71.82 279.954 72.54 278.334 72.54H270.054C268.164 72.54 267.444 71.91 268.164 70.02L290.754 12.78C291.114 11.97 291.834 11.34 292.914 11.34H304.524C305.604 11.34 306.324 11.79 306.774 12.78L329.364 70.02C330.084 71.82 329.274 72.54 327.474 72.54H318.474C316.854 72.54 315.954 72.09 315.414 70.56L310.284 56.43H286.524L281.394 70.47ZM290.214 46.17H306.504L298.404 23.76L290.214 46.17ZM370.032 72.54C368.952 72.54 368.322 72.09 367.872 71.19L349.782 34.56V71.1C349.782 71.91 349.152 72.54 348.252 72.54H338.982C338.172 72.54 337.452 71.91 337.452 71.1V12.78C337.452 11.97 338.172 11.34 338.982 11.34H350.142C351.312 11.34 352.122 11.7 352.482 12.6L373.092 55.62L393.612 12.6C394.062 11.61 394.872 11.34 395.952 11.34H405.672C406.572 11.34 407.202 11.97 407.202 12.78V71.1C407.202 71.91 406.572 72.54 405.672 72.54H396.402C395.502 72.54 394.872 71.91 394.872 71.1V34.56L376.872 71.19C376.422 72.18 375.702 72.54 374.622 72.54H370.032ZM416.553 81.63L420.423 61.56C420.693 60.03 421.863 59.49 423.393 59.49H431.763C433.473 59.49 433.923 60.3 433.293 62.1L425.643 82.08C425.193 83.43 424.203 84.15 422.763 84.15H417.993C416.463 84.15 416.283 83.25 416.553 81.63Z" fill="black"/>
</svg>

<svg xmlns="http://www.w3.org/2000/svg" width="434" height="85" fill="none"><path fill="#000" d="M22.68 73.08c-9.63 0-16.74-.36-21.69-.99-.9-.09-.99-.27-.99-.63 0-.63 1.62-1.44 2.97-2.34l1.26-.9c.09-.09.18-.09.18-.18 1.89-1.44 3.24-3.24 5.49-7.2 7.92-13.86 14.49-29.61 22.5-43.47a26 26 0 0 1 8.91-9.45l3.87-2.52.63.9c-3.42 2.34-4.68 4.86-6.75 8.37-7.92 13.59-14.4 29.16-22.14 42.75-2.25 3.96-3.87 5.94-6.66 7.92l-3.24 2.25h.09c2.79.45 13.14 1.35 21.33 1.35 24.75 0 40.68-14.49 40.59-34.56-.09-17.91-12.42-31.14-33.12-31.14-9.81 0-17.19 4.68-20.25 6.84l-.54-.9C22.14 4.14 30.87 0 41.4 0c20.88 0 32.58 14.94 32.58 29.43 0 26.55-26.46 43.74-51.3 43.65m81.75.09c-3.33 0-4.23-2.61-4.23-4.59 0-6.75 5.76-17.64 11.52-26.73-15.84 18.72-27.9 31.32-33.57 31.32-4.77 0-5.85-4.41-5.85-7.02 0-15.03 19.08-39.24 35.91-39.24 3.7 0 9.9.63 14.85 2.25l.72.27c.81.27 1 .81.45 1.53a210 210 0 0 0-11.52 18.27c-5.76 10.62-6.39 15.48-6.39 17.01 0 1.71.9 2.52 2.43 2.52 1.98 0 4.5-1.08 8.91-4.95l.63.9c-5.58 4.77-11.16 8.46-13.86 8.46M78.06 63.9c0 2.97 1.17 5.31 3.6 5.31 3.96 0 16.3-12.15 35.2-35.1l.9-1.35c-3.6-1.35-9.28-2.97-14.14-2.97-13.23 0-25.56 19.98-25.56 34.11m49.55 9.27c-4.68 0-9.18-1.71-8.91-6.39.09-1.89 1.26-4.32 5.67-7.65l.54.45a8 8 0 0 0-1 3.78c0 3.78 2.8 7.47 8.92 7.47 5.58 0 10.62-3.6 10.62-9.36 0-7.2-8.73-15.39-8.2-22.41.64-7.65 10.54-12.15 18.82-12.15 3.78 0 8.28 1.08 8.28 2.61 0 1.89-2.7 3.78-4.68 3.78-2.7 0-5.4-1.17-11.8-3.96-4.4 1.53-6.3 3.6-6.56 6.03-.72 7.56 8.64 14.85 8.28 23.22-.45 8.46-9.63 14.58-19.98 14.58m50.32-2.07V22.14H159.2c-.9 0-1.44-.63-1.44-1.44v-7.83c0-.99.54-1.53 1.44-1.53h50.4c.9 0 1.53.54 1.53 1.53v7.83c0 .81-.63 1.44-1.53 1.44h-18.72V71.1c0 .81-.63 1.44-1.53 1.44h-9.9c-.9 0-1.53-.63-1.53-1.44m41.05 0V12.78c0-.81.72-1.44 1.53-1.44h41.94c.9 0 1.44.54 1.44 1.53v7.83c0 .81-.54 1.44-1.44 1.44h-30.51v12.87h21.5c.9 0 1.45.54 1.45 1.53v7.74c0 .9-.54 1.53-1.44 1.53h-21.51v15.93h30.5c.9 0 1.45.54 1.45 1.44v7.83c0 .9-.54 1.53-1.44 1.53H220.5c-.81 0-1.53-.63-1.53-1.44m62.41-.63c-.45 1.35-1.44 2.07-3.06 2.07h-8.28c-1.89 0-2.6-.63-1.89-2.52l22.6-57.24a2.3 2.3 0 0 1 2.15-1.44h11.61c1.08 0 1.8.45 2.25 1.44l22.6 57.24c.71 1.8-.1 2.52-1.9 2.52h-9c-1.62 0-2.52-.45-3.06-1.98l-5.13-14.13h-23.76zm8.82-24.3h16.3l-8.1-22.41zm79.82 26.37c-1.08 0-1.7-.45-2.16-1.35l-18.09-36.63V71.1c0 .81-.63 1.44-1.53 1.44h-9.27c-.8 0-1.53-.63-1.53-1.44V12.78c0-.81.72-1.44 1.53-1.44h11.16c1.17 0 1.98.36 2.34 1.26l20.61 43.02 20.52-43.02c.45-.99 1.26-1.26 2.34-1.26h9.72c.9 0 1.53.63 1.53 1.44V71.1c0 .81-.63 1.44-1.53 1.44h-9.27c-.9 0-1.53-.63-1.53-1.44V34.56l-18 36.63c-.45.99-1.17 1.35-2.25 1.35zm46.52 9.09 3.87-20.07c.27-1.53 1.44-2.07 2.97-2.07h8.37c1.71 0 2.16.81 1.53 2.61l-7.65 19.98a2.8 2.8 0 0 1-2.88 2.07H418c-1.53 0-1.7-.9-1.44-2.52"/></svg>
